X:1
T:Shedd el hezam
T:Shedd el hezam شد الحزام
T:Sayyed Darwish سيد درويش
T:شد الحزام على وسطك غيره مايفيدك لابد عن يوم برضه ويعدلها سيدك إن كان شيل الحمول على ظهرك يكيدك أهون عليك ياحر من مدة إيدك ماتيالله بينا انت وياه ونستعين ع الشقا بالله واهو اللى فيه القسمه طلناه واللى مايجيش ان شالله ما جاء مادام بنلقى عيش وغموس يهمك ايه تفضل موحوس ماتحط راسك بين الرؤوس لا تقوللي لا خيار ولافقوس ح أقولك إيه وأعيد لك إيه كله له آخر دى خبطة جامدة وجت على عينك ياتاجر يا وحستك دلوقت لاوارد ولاصادر يحلها الفين حلال ربك قادر قل لي فى عرض النبي ياحسين رايحين نلاقيها منين ومنين والاش متجوز اثنين يادنيا غوري جاتك البين شوفوا البخيل يفضل منحوس ولو علقوا على بابه فانوس فلوس دي ايه سكت ياجاموس هيه السعادة فى غنا النفوس قرب شيلني شيل عمر الشده ما تطول لا تقولي كتير و قليل بكرا مش زي الاول هيلا هيلا هيلا هيلا هيلا هيلا هيلا لسا يالله بنا يالله نلحق لاكسبريس اهـو ع الرصيف وادى احنا يا دوبك لسه ماعملناش بحق رغيف كل المحطـات قبــــلى وبحـــرى بقت لماليـــف يتـوب عليـنا من دى العيشــة يا لطيف يا لطيف ما قطعوا لنا التليفونــــات وعطلوا التلغرافـــــــــــات عمركش سمعت الدلنجات بيسافروا لها بالباسبورتات غلب حمار اللى له حما ر يحمــله لك ست انفــــــــار واهو السفر فى الايام دى صار ع البهايم ليل ونهــار قرب شيلني شيل لا تقوللي كتير وقليل عمر الشدة ماتطول بكرة نهيص زى الاول هيلا هيلا هيلا هيلا هيلا ليصه هيلا ليصه
L:1/8
Q:1/4=85
M:2/4
K:C
V:1 treble nm="Piano" snm="Pno."
V:1
"Gdim7""^A" z ^c ^AG |S"F#" ^FE FG |"Gdim7" ^AB AG |"F#" ^F4 |"Gdim7" z ^c ^AG |"F#" ^FE FG | %6
"Gdim7" ^AB AG |"F#" ^F4 |"Bm7" z B BB |"F#7" ^AB ^c2 |"Bm7" ^cd cB |"F#7" ^AB ^c2 | %12
"Gdim7" z ^c ^AG |"F#" ^FE FG |[M:3/4]"Gdim7" ^AB ^cA"G" B>G ||[M:2/4]"F#""^B" .^F"CN.C." F B^c | %16
 d^c B^A |"Bm" B4- | B4 | z d ^cB | B^A G^F |"Em" E4- | E4 | z e d^c | B^A GA |"Bm" B4- | B4 | %27
 z d ^cB | B^A G^F |"Em" E4- | E4 | z E ^FF |"Gdim7" GG ^AA |"Bm" BB ^cd |"F#7" ed ^c^A | %35
"Bm" B2 ^f2 | de ^cd | B^c ^AB | G^A ^FF |"Em" G>^F .E E/E/ |[M:3/4]"F#7" G2 ^FG ^AB | %41
[M:2/4]"Gdim7" .^c c ^AG!D.S.! |][M:4/4]"F#7""_F# Phrygian dominant / Hijaz descending حجاز" ^F8 | %43
"Gmaj7" G8 |"C""A#dim7" ^A8 |"Bmaj" B8 |"C#m7b5" ^c8 |"Dmaj7#5" d8 |"C""Em7" e8 |] %49

